X: 386
T: Duncan Davidson
%R: reel
Z: 2014 John Chambers <jc:trillian.mit.edu>
B: Preston "Twenty four Country Dances for the Year 1800" p.173 #2
F: http://www.vwml.org/browse/browse-collections-dance-tune-books/browse-prestons1800# 2014-8-10
M: C|
L: 1/8
K: D
|:\
DFAB AFAB | DFAB AFE2 |\
DFAB AFAf | edef d4 :|
|:\
f>ede f>gaf | cAeA cAeA |\
f>ede f>gaf | edef d4 :|
% - - - - - - - - - - - - - - - - - - - - - - - - -
%%begintext align
%% Set and change sides .| change sides
%% back again :| lead down the middle :|.
%% Allemand :|:
%%endtext
% - - - - - - - - - - - - - - - - - - - - - - - - -

%%sep 1 1 500
%%sep 1 1 500
